X: 8921
T: Curlews, The
R: reel
M: 4/4
K: Bminor
|:"Bm"fB B/B/B Bcde|fece a^gae|faed "A"cA A/A/A|^GAce a^gba|
"Bm"fB B/B/B Bcde|fece a^gae|"G"=g3e "D"f3e|"Bm"dBBA FB B2:|
|:"Bm"Bdcd BFFF|DF F/F/F Bcdf|"A"ecBc AEEE|CE E/E/E ABcA|
"Bm"Bdcd BFFF|DF F/F/F Bcdf|"A"ecBc fcec|"D"dcBA "Bm"FB B2:|

